Suru++-Ubuntu/apps/scalable/spacemacs.svg

<svg width="256" height="256" style="clip-rule:evenodd;fill-rule:evenodd;image-rendering:optimizeQuality;shape-rendering:geometricPrecision;text-rendering:geometricPrecision" version="1.1" viewBox="0 0 256 256" xmlns="http://www.w3.org/2000/svg" xmlns:xlink="http://www.w3.org/1999/xlink">
 <defs>
  <style type="text/css"><![CDATA[
    .fil5 {fill:none}
    .fil1 {fill:#196FBA}
    .fil0 {fill:#25B2EE}
    .fil4 {fill:#793C7C}
    .fil3 {fill:#8C508C}
    .fil2 {fill:white}
   ]]></style>
  <filter id="filter939" x="-.02" y="-.03" width="1.046" height="1.05" style="color-interpolation-filters:sRGB">
   <feGaussianBlur stdDeviation="2.32"/>
  </filter>
  <filter id="filter4569" x="-.01" y="-.01" width="1.023" height="1.025" style="color-interpolation-filters:sRGB">
   <feGaussianBlur stdDeviation="1.16"/>
  </filter>
  <linearGradient id="linearGradient1108" x1="296" x2="296" y1="-212" y2="236" gradientUnits="userSpaceOnUse">
   <stop style="stop-color:#ffffff" offset="0"/>
   <stop style="stop-color:#ffffff;stop-opacity:.09803922" offset=".125"/>
   <stop style="stop-color:#000000;stop-opacity:.09803922" offset=".925"/>
   <stop style="stop-color:#000000;stop-opacity:.49803922" offset="1"/>
  </linearGradient>
  <clipPath id="clipPath1082-3-361">
   <path d="M 361.9375,-212 C 507.2348,-212 528,-191.28677 528,-46.125 V 70.125 C 528,215.28618 507.2348,236 361.9375,236 H 214.0625 C 68.7652,236 48,215.28618 48,70.125 V -46.125 C 48,-191.28677 68.7652,-212 214.0625,-212 Z" style="fill:#8c59d9"/>
  </clipPath>
  <filter id="filter871" x="-.05" y="-.05" width="1.092" height="1.1" style="color-interpolation-filters:sRGB">
   <feGaussianBlur stdDeviation="4.121"/>
  </filter>
 </defs>
 <path transform="matrix(1.019368,0,0,1.019368,-7.2181772e-8,8.3098661)" d="m162.53675 5.5680001c72.64865 0 83.03125 10.356615 83.03125 82.937505v58.125005c0 72.58059-10.3826 82.9375-83.03125 82.9375h-73.937496c-72.648654 0-83.031254-10.35691-83.031254-82.9375v-58.125005c0-72.58089 10.3826-82.937505 83.031254-82.937505z" style="filter:url(#filter939);opacity:.2"/>
 <path d="m165.68477 11.946967c74.05571 0 84.6394 10.557203 84.6394 84.543835v59.250778c0 73.98633-10.58369 84.54383-84.6394 84.54383h-75.369521c-74.055717 0-84.639408-10.5575-84.639408-84.54383v-59.250778c0-73.986632 10.583691-84.543835 84.639408-84.543835z" style="fill:none;opacity:.1;stroke-linecap:round;stroke-linejoin:round;stroke-width:4.0774717;stroke:#000000"/>
 <path transform="matrix(1.019368,0,0,1.019368,-7.2181772e-8,8.3098661)" d="m162.53675 3.5680001c72.64865 0 83.03125 10.356615 83.03125 82.937505v58.125005c0 72.58059-10.3826 82.9375-83.03125 82.9375h-73.937496c-72.648654 0-83.031254-10.35691-83.031254-82.9375v-58.125005c0-72.58089 10.3826-82.937505 83.031254-82.937505z" style="filter:url(#filter4569);opacity:.1"/>
 <path d="m165.68476 11.946967c74.05571 0 84.6394 10.557203 84.6394 84.543835v59.250778c0 73.98633-10.58369 84.54383-84.6394 84.54383h-75.369522c-74.055712 0-84.639403-10.5575-84.639403-84.54383v-59.250778c0-73.986632 10.583691-84.543835 84.639403-84.543835z" style="fill:#6b5198"/>
 <path d="m90.315238 240.28541c-74.055712 0-84.639403-10.95275-84.639403-87.71148v-30.73535h244.64832v30.73535c0 76.75873-10.58369 87.71148-84.6394 87.71148z" style="fill:#ffffff;opacity:.1"/>
 <path d="m127.01285 11.946967v228.33844h37.98888c74.65333 0 85.32243-10.5575 85.32243-84.54383v-59.250778c0-73.986632-10.6691-84.543835-85.32243-84.543835z" style="fill:#ffffff;opacity:.1"/>
 <path d="m44.121094 15.164062c-2.168357 0.452323-4.314998 0.914223-6.251953 1.490235-2.471911 0.735097-4.760837 1.57559-6.878907 2.535156-2.118069 0.959566-4.065415 2.038195-5.855468 3.248047-1.790054 1.209852-3.422296 2.551156-4.910157 4.037109-1.48786 1.485954-2.831475 3.116425-4.042968 4.904297-1.211493 1.787873-2.291004 3.732049-3.251953 5.847656-0.809118 1.781338-1.490318 3.754612-2.138672 5.785157 0.399834-0.371254 0.714319-0.738911 1.144531-1.113281 9.611184-8.326277 24.833216-9.013233 43.861328-1.966797 33.817824 12.523025 71.584755 33.009817 110.04296 81.822269 3.6296 4.60682 6.18243 10.57662 9.27735 14.43554-9.85031 0.17669-24.80196-0.78289-37.68164-3.09765-48.453388-8.70713-94.085129-28.50085-115.48047-50.820316-1.915847-1.998593-3.480838-3.48616-3.488281-3.320312-0.0085 0.170227 4.313725 8.936042 9.59375 19.46289l7.939453 18.404298 11.800781 5.71484c12.836198 6.30534 29.185994 13.66891 64.697269 29.14844 38.90393 16.95813 56.32743 25.11041 73.99414 34.64063 14.15826 7.63767 28.54834 16.95511 35.80859 23.17382 2.47388 2.12762 3.04838 2.67048 3.26563 2.89453 9e-3 -0.16011 0.18349-0.94502 0.11132-1.57812-0.47022-3.45286-3.18057-17.10427-5.69726-29.74023-0.54441-2.86218-1.1401-5.71456-1.70703-8.57227-0.26078-1.30229-0.602-3.07137-0.83399-4.23047-0.36905-1.84353-0.79079-3.58431-1.16992-5.40039-5.33519-25.61743-11.5474-51.05128-19.44336-76.08789-3.64114-11.403308-5.93647-16.926806-9.68555-23.693359-1.38756-2.505188-16.71467-12.77713-19.35156-14.158203-0.0427-0.021851-0.21226-0.21558-0.24218-0.222657l-0.01758 0.03711c-0.0964-0.04779-0.77243-0.508532-0.81641-0.519532l-0.01953 0.019532c-0.0333-0.01141-0.04854-0.016742-0.05664-0.019532-0.15532 0.142164 1.04376 2.753711 2.33789 5.029297 13.25567 23.313305 21.96129 61.159494 17.5332 80.746094-0.0742 0.30446-0.1281 0.61348-0.24023 0.92773-5e-3 0.0142-0.01433 0.04179-0.01953 0.05469v0.01953c-9e-3 -3e-3 -0.04679-0.01473-0.05469-0.01953-0.10357 0.038-0.38763 0.09429-0.51953 0.13086-3.61574-4.63893-6.78848-11.47589-11.20703-17.25586-27.13805-34.840258-76.694405-86.009147-127.87305-102.11914-0.878738-0.249327-1.625243-0.357074-2.472656-0.574219z" style="fill:#141414;filter:url(#filter871);opacity:.3"/>
 <path d="m44.121094 15.164062c-2.168357 0.452323-4.314998 0.914223-6.251953 1.490235-2.471911 0.735097-4.760837 1.57559-6.878907 2.535156-2.118069 0.959566-4.065415 2.038195-5.855468 3.248047-1.790054 1.209852-3.422296 2.551156-4.910157 4.037109-1.48786 1.485954-2.831475 3.116425-4.042968 4.904297-1.211493 1.787873-2.291004 3.732049-3.251953 5.847656-0.809118 1.781338-1.490318 3.754612-2.138672 5.785157 0.399834-0.371254 0.714319-0.738911 1.144531-1.113281 9.611184-8.326277 24.833216-9.013233 43.861328-1.966797 33.817824 12.523025 71.584755 33.009817 110.04296 81.822269 3.6296 4.60682 6.18243 10.57662 9.27735 14.43554-9.85031 0.17669-24.80196-0.78289-37.68164-3.09765-48.453388-8.70713-94.085129-28.50085-115.48047-50.820316-1.915847-1.998593-3.480838-3.48616-3.488281-3.320312-0.0085 0.170227 4.313725 8.936042 9.59375 19.46289l7.939453 18.404298 11.800781 5.71484c12.836198 6.30534 29.185994 13.66891 64.697269 29.14844 38.90393 16.95813 56.32743 25.11041 73.99414 34.64063 14.15826 7.63767 28.54834 16.95511 35.80859 23.17382 2.47388 2.12762 3.04838 2.67048 3.26563 2.89453 9e-3 -0.16011 0.18349-0.94502 0.11132-1.57812-0.47022-3.45286-3.18057-17.10427-5.69726-29.74023-0.54441-2.86218-1.1401-5.71456-1.70703-8.57227-0.26078-1.30229-0.602-3.07137-0.83399-4.23047-0.36905-1.84353-0.79079-3.58431-1.16992-5.40039-5.33519-25.61743-11.5474-51.05128-19.44336-76.08789-3.64114-11.403308-5.93647-16.926806-9.68555-23.693359-1.38756-2.505188-16.71467-12.77713-19.35156-14.158203-0.0427-0.021851-0.21226-0.21558-0.24218-0.222657l-0.01758 0.03711c-0.0964-0.04779-0.77243-0.508532-0.81641-0.519532l-0.01953 0.019532c-0.0333-0.01141-0.04854-0.016742-0.05664-0.019532-0.15532 0.142164 1.04376 2.753711 2.33789 5.029297 13.25567 23.313305 21.96129 61.159494 17.5332 80.746094-0.0742 0.30446-0.1281 0.61348-0.24023 0.92773-5e-3 0.0142-0.01433 0.04179-0.01953 0.05469v0.01953c-9e-3 -3e-3 -0.04679-0.01473-0.05469-0.01953-0.10357 0.038-0.38763 0.09429-0.51953 0.13086-3.61574-4.63893-6.78848-11.47589-11.20703-17.25586-27.13805-34.840258-76.694405-86.009147-127.87305-102.11914-0.878738-0.249327-1.625243-0.357074-2.472656-0.574219z" style="fill:#ffffff"/>
 <path transform="matrix(.50968403 0 0 .50968403 -18.788999 120)" d="M 361.9375,-212 C 507.2348,-212 528,-191.28677 528,-46.125 V 70.125 C 528,215.28618 507.2348,236 361.9375,236 H 214.0625 C 68.7652,236 48,215.28618 48,70.125 V -46.125 C 48,-191.28677 68.7652,-212 214.0625,-212 Z" clip-path="url(#clipPath1082-3-361)" style="fill:none;opacity:.4;stroke-linecap:round;stroke-linejoin:round;stroke-width:8;stroke:url(#linearGradient1108)"/>
</svg>

<svg xmlns="http://www.w3.org/2000/svg" xmlns:xlink="http://www.w3.org/1999/xlink" style="clip-rule:evenodd;fill-rule:evenodd;image-rendering:optimizeQuality;shape-rendering:geometricPrecision;text-rendering:geometricPrecision" width="256" height="256" version="1.1" viewBox="0 0 256 256" xml:space="preserve">
 <defs>
  <style id="style2" type="text/css">
   <![CDATA[
    .fil5 {fill:none}
    .fil1 {fill:#196FBA}
    .fil0 {fill:#25B2EE}
    .fil4 {fill:#793C7C}
    .fil3 {fill:#8C508C}
    .fil2 {fill:white}
   ]]>
  </style>
  <filter style="color-interpolation-filters:sRGB" id="filter939" width="1.046" height="1.05" x="-.02" y="-.03">
   <feGaussianBlur id="feGaussianBlur941" stdDeviation="2.32"/>
  </filter>
  <filter style="color-interpolation-filters:sRGB" id="filter4569" width="1.023" height="1.025" x="-.01" y="-.01">
   <feGaussianBlur id="feGaussianBlur4571" stdDeviation="1.16"/>
  </filter>
  <linearGradient id="linearGradient1108" x1="296" x2="296" y1="-212" y2="236" gradientUnits="userSpaceOnUse" xlink:href="#linearGradient1013"/>
  <linearGradient id="linearGradient1013">
   <stop id="stop1005" offset="0" style="stop-color:#ffffff"/>
   <stop style="stop-color:#ffffff;stop-opacity:0.09803922" id="stop1007" offset=".125"/>
   <stop style="stop-color:#000000;stop-opacity:0.09803922" id="stop1009" offset=".925"/>
   <stop id="stop1011" offset="1" style="stop-color:#000000;stop-opacity:0.49803922"/>
  </linearGradient>
  <clipPath id="clipPath1082-3-361" clipPathUnits="userSpaceOnUse">
   <path d="M 361.9375,-212 C 507.2348,-212 528,-191.28677 528,-46.125 V 70.125 C 528,215.28618 507.2348,236 361.9375,236 H 214.0625 C 68.7652,236 48,215.28618 48,70.125 V -46.125 C 48,-191.28677 68.7652,-212 214.0625,-212 Z" style="fill:#8c59d9"/>
  </clipPath>
  <linearGradient id="linearGradient4958">
   <stop style="stop-color:#8d91db" id="stop4960" offset="0"/>
   <stop style="stop-color:#1f225f" id="stop4962" offset="1"/>
  </linearGradient>
  <filter style="color-interpolation-filters:sRGB" id="filter871" width="1.092" height="1.1" x="-.05" y="-.05">
   <feGaussianBlur id="feGaussianBlur873" stdDeviation="4.121"/>
  </filter>
 </defs>
 <path style="opacity:0.2;filter:url(#filter939)" d="m 162.53675,5.5680001 c 72.64865,0 83.03125,10.3566149 83.03125,82.9375049 v 58.125005 c 0,72.58059 -10.3826,82.9375 -83.03125,82.9375 H 88.599254 C 15.9506,229.56801 5.568,219.2111 5.568,146.63051 V 88.505505 c 0,-72.58089 10.3826,-82.9375049 83.031254,-82.9375049 z" transform="matrix(1.019368,0,0,1.019368,-7.2181772e-8,8.3098661)"/>
 <path d="m 165.68477,11.946967 c 74.05571,0 84.6394,10.557203 84.6394,84.543835 v 59.250778 c 0,73.98633 -10.58369,84.54383 -84.6394,84.54383 H 90.315249 c -74.055717,0 -84.639408,-10.5575 -84.639408,-84.54383 V 96.490802 c 0,-73.986632 10.583691,-84.543835 84.639408,-84.543835 z" style="opacity:0.1;fill:none;stroke:#000000;stroke-width:4.07747173;stroke-linecap:round;stroke-linejoin:round"/>
 <path d="m 162.53675,3.5680001 c 72.64865,0 83.03125,10.3566149 83.03125,82.9375049 v 58.125005 c 0,72.58059 -10.3826,82.9375 -83.03125,82.9375 H 88.599254 C 15.9506,227.56801 5.568,217.2111 5.568,144.63051 V 86.505505 c 0,-72.58089 10.3826,-82.9375049 83.031254,-82.9375049 z" transform="matrix(1.019368,0,0,1.019368,-7.2181772e-8,8.3098661)" style="opacity:0.1;filter:url(#filter4569)"/>
 <path style="fill:#6b5198" d="m 165.68476,11.946967 c 74.05571,0 84.6394,10.557203 84.6394,84.543835 v 59.250778 c 0,73.98633 -10.58369,84.54383 -84.6394,84.54383 H 90.315238 c -74.055712,0 -84.639403,-10.5575 -84.639403,-84.54383 V 96.490802 c 0,-73.986632 10.583691,-84.543835 84.639403,-84.543835 z"/>
 <path style="opacity:0.1;fill:#ffffff" d="m 90.315238,240.28541 c -74.055712,0 -84.639403,-10.95275 -84.639403,-87.71148 V 121.83858 H 250.32416 v 30.73535 c 0,76.75873 -10.58369,87.71148 -84.6394,87.71148 z"/>
 <path style="opacity:0.1;fill:#ffffff" d="M 127.01285,11.946967 V 240.28541 h 37.98888 c 74.65333,0 85.32243,-10.5575 85.32243,-84.54383 V 96.490802 c 0,-73.986632 -10.6691,-84.543835 -85.32243,-84.543835 z"/>
 <path d="M 44.121094 15.164062 C 41.952737 15.616385 39.806096 16.078285 37.869141 16.654297 C 35.39723 17.389394 33.108304 18.229887 30.990234 19.189453 C 28.872165 20.149019 26.924819 21.227648 25.134766 22.4375 C 23.344712 23.647352 21.71247 24.988656 20.224609 26.474609 C 18.736749 27.960563 17.393134 29.591034 16.181641 31.378906 C 14.970148 33.166779 13.890637 35.110955 12.929688 37.226562 C 12.12057 39.0079 11.43937 40.981174 10.791016 43.011719 C 11.19085 42.640465 11.505335 42.272808 11.935547 41.898438 C 21.546731 33.572161 36.768763 32.885205 55.796875 39.931641 C 89.614699 52.454666 127.38163 72.941458 165.83984 121.75391 C 169.46944 126.36073 172.02227 132.33053 175.11719 136.18945 C 165.26688 136.36614 150.31523 135.40656 137.43555 133.0918 C 88.982162 124.38467 43.350421 104.59095 21.955078 82.271484 C 20.039231 80.272891 18.47424 78.785324 18.466797 78.951172 C 18.458297 79.121399 22.780522 87.887214 28.060547 98.414062 L 36 116.81836 L 47.800781 122.5332 C 60.636979 128.83854 76.986775 136.20211 112.49805 151.68164 C 151.40198 168.63977 168.82548 176.79205 186.49219 186.32227 C 200.65045 193.95994 215.04053 203.27738 222.30078 209.49609 C 224.77466 211.62371 225.34916 212.16657 225.56641 212.39062 C 225.57541 212.23051 225.7499 211.4456 225.67773 210.8125 C 225.20751 207.35964 222.49716 193.70823 219.98047 181.07227 C 219.43606 178.21009 218.84037 175.35771 218.27344 172.5 C 218.01266 171.19771 217.67144 169.42863 217.43945 168.26953 C 217.0704 166.426 216.64866 164.68522 216.26953 162.86914 C 210.93434 137.25171 204.72213 111.81786 196.82617 86.78125 C 193.18503 75.377942 190.8897 69.854444 187.14062 63.087891 C 185.75306 60.582703 170.42595 50.310761 167.78906 48.929688 C 167.74636 48.907837 167.5768 48.714108 167.54688 48.707031 L 167.5293 48.744141 C 167.4329 48.696351 166.75687 48.235609 166.71289 48.224609 L 166.69336 48.244141 C 166.66006 48.232731 166.64482 48.227399 166.63672 48.224609 C 166.4814 48.366773 167.68048 50.97832 168.97461 53.253906 C 182.23028 76.567211 190.9359 114.4134 186.50781 134 C 186.43361 134.30446 186.37971 134.61348 186.26758 134.92773 C 186.26258 134.94193 186.25325 134.96952 186.24805 134.98242 L 186.24805 135.00195 C 186.23905 134.99895 186.20126 134.98722 186.19336 134.98242 C 186.08979 135.02042 185.80573 135.07671 185.67383 135.11328 C 182.05809 130.47435 178.88535 123.63739 174.4668 117.85742 C 147.32875 83.017162 97.772395 31.848273 46.59375 15.738281 C 45.715012 15.488954 44.968507 15.381207 44.121094 15.164062 z" style="fill:#141414;filter:url(#filter871);opacity:0.3"/>
 <path style="fill:#ffffff" d="M 44.121094 15.164062 C 41.952737 15.616385 39.806096 16.078285 37.869141 16.654297 C 35.39723 17.389394 33.108304 18.229887 30.990234 19.189453 C 28.872165 20.149019 26.924819 21.227648 25.134766 22.4375 C 23.344712 23.647352 21.71247 24.988656 20.224609 26.474609 C 18.736749 27.960563 17.393134 29.591034 16.181641 31.378906 C 14.970148 33.166779 13.890637 35.110955 12.929688 37.226562 C 12.12057 39.0079 11.43937 40.981174 10.791016 43.011719 C 11.19085 42.640465 11.505335 42.272808 11.935547 41.898438 C 21.546731 33.572161 36.768763 32.885205 55.796875 39.931641 C 89.614699 52.454666 127.38163 72.941458 165.83984 121.75391 C 169.46944 126.36073 172.02227 132.33053 175.11719 136.18945 C 165.26688 136.36614 150.31523 135.40656 137.43555 133.0918 C 88.982162 124.38467 43.350421 104.59095 21.955078 82.271484 C 20.039231 80.272891 18.47424 78.785324 18.466797 78.951172 C 18.458297 79.121399 22.780522 87.887214 28.060547 98.414062 L 36 116.81836 L 47.800781 122.5332 C 60.636979 128.83854 76.986775 136.20211 112.49805 151.68164 C 151.40198 168.63977 168.82548 176.79205 186.49219 186.32227 C 200.65045 193.95994 215.04053 203.27738 222.30078 209.49609 C 224.77466 211.62371 225.34916 212.16657 225.56641 212.39062 C 225.57541 212.23051 225.7499 211.4456 225.67773 210.8125 C 225.20751 207.35964 222.49716 193.70823 219.98047 181.07227 C 219.43606 178.21009 218.84037 175.35771 218.27344 172.5 C 218.01266 171.19771 217.67144 169.42863 217.43945 168.26953 C 217.0704 166.426 216.64866 164.68522 216.26953 162.86914 C 210.93434 137.25171 204.72213 111.81786 196.82617 86.78125 C 193.18503 75.377942 190.8897 69.854444 187.14062 63.087891 C 185.75306 60.582703 170.42595 50.310761 167.78906 48.929688 C 167.74636 48.907837 167.5768 48.714108 167.54688 48.707031 L 167.5293 48.744141 C 167.4329 48.696351 166.75687 48.235609 166.71289 48.224609 L 166.69336 48.244141 C 166.66006 48.232731 166.64482 48.227399 166.63672 48.224609 C 166.4814 48.366773 167.68048 50.97832 168.97461 53.253906 C 182.23028 76.567211 190.9359 114.4134 186.50781 134 C 186.43361 134.30446 186.37971 134.61348 186.26758 134.92773 C 186.26258 134.94193 186.25325 134.96952 186.24805 134.98242 L 186.24805 135.00195 C 186.23905 134.99895 186.20126 134.98722 186.19336 134.98242 C 186.08979 135.02042 185.80573 135.07671 185.67383 135.11328 C 182.05809 130.47435 178.88535 123.63739 174.4668 117.85742 C 147.32875 83.017162 97.772395 31.848273 46.59375 15.738281 C 45.715012 15.488954 44.968507 15.381207 44.121094 15.164062 z"/>
 <path d="M 361.9375,-212 C 507.2348,-212 528,-191.28677 528,-46.125 V 70.125 C 528,215.28618 507.2348,236 361.9375,236 H 214.0625 C 68.7652,236 48,215.28618 48,70.125 V -46.125 C 48,-191.28677 68.7652,-212 214.0625,-212 Z" clip-path="url(#clipPath1082-3-361)" transform="matrix(0.50968403,0,0,0.50968403,-18.788999,120)" style="opacity:0.4;fill:none;stroke:url(#linearGradient1108);stroke-width:8;stroke-linecap:round;stroke-linejoin:round"/>
</svg>
